symbols/web/13mp/materialsymbolsrounded/13mp_wght300gradN25_40px.svg

<svg xmlns="http://www.w3.org/2000/svg" height="40" width="40"><path d="M15.292 18.667q.333 0 .583-.25.25-.25.25-.625v-7q0-.625-.417-1.042-.416-.417-1.041-.417h-1.959q-.375 0-.604.25-.229.25-.229.584 0 .375.25.625t.583.25h1.709v6.791q0 .375.25.605.25.229.625.229Zm5.666 0h4.334q.583 0 1.02-.438.438-.437.438-.979v-6.5q0-.542-.438-.979-.437-.438-1.02-.438h-4.334q-.375 0-.625.25t-.25.584q0 .375.25.625t.625.25h4.084v2.333h-2.834q-.25 0-.437.167-.188.166-.188.458 0 .25.209.458.208.209.458.209h2.792v2.291h-4.125q-.334 0-.584.25-.25.25-.25.625t.25.605q.25.229.625.229ZM8.5 34q-1 0-1.75-.75T6 31.5v-23q0-1 .75-1.75T8.5 6h23q1 0 1.75.75T34 8.5v23q0 1-.75 1.75T31.5 34Zm0-2h23q.208 0 .354-.146T32 31.5v-23q0-.208-.146-.354T31.5 8h-23q-.208 0-.354.146T8 8.5v23q0 .208.146.354T8.5 32Zm2.583-1.333q.375 0 .625-.25t.25-.625v-6.75h2.459v4.291q0 .334.25.563.25.229.625.229.333 0 .583-.25.25-.25.25-.583v-4.25h2.625v6.791q0 .375.25.605.25.229.625.229t.604-.25q.229-.25.229-.625v-7.084q0-.541-.416-.958-.417-.417-.959-.417h-7.458q-.583 0-1 .417-.417.417-.417.958v7.125q0 .375.25.605.25.229.625.229Zm12.875 0q.375 0 .625-.25t.25-.625v-1.667h3.542q.542 0 .958-.417.417-.416.417-.958v-4.042q0-.541-.417-.958-.416-.417-.958-.417H24.5q-.583 0-1 .396-.417.396-.417.979v7.125q0 .375.271.605.271.229.604.229Zm.875-7.625h3.209v3.375h-3.209ZM8 8.5V8v24-.5Z"/></svg>

<svg xmlns="http://www.w3.org/2000/svg" height="40" width="40"><path d="M15.292 18.667Q15.625 18.667 15.875 18.417Q16.125 18.167 16.125 17.792V10.792Q16.125 10.167 15.708 9.75Q15.292 9.333 14.667 9.333H12.708Q12.333 9.333 12.104 9.583Q11.875 9.833 11.875 10.167Q11.875 10.542 12.125 10.792Q12.375 11.042 12.708 11.042H14.417V17.833Q14.417 18.208 14.667 18.438Q14.917 18.667 15.292 18.667ZM20.958 18.667H25.292Q25.875 18.667 26.312 18.229Q26.75 17.792 26.75 17.25V10.75Q26.75 10.208 26.312 9.771Q25.875 9.333 25.292 9.333H20.958Q20.583 9.333 20.333 9.583Q20.083 9.833 20.083 10.167Q20.083 10.542 20.333 10.792Q20.583 11.042 20.958 11.042H25.042V13.375H22.208Q21.958 13.375 21.771 13.542Q21.583 13.708 21.583 14Q21.583 14.25 21.792 14.458Q22 14.667 22.25 14.667H25.042V16.958H20.917Q20.583 16.958 20.333 17.208Q20.083 17.458 20.083 17.833Q20.083 18.208 20.333 18.438Q20.583 18.667 20.958 18.667ZM8.5 34Q7.5 34 6.75 33.25Q6 32.5 6 31.5V8.5Q6 7.5 6.75 6.75Q7.5 6 8.5 6H31.5Q32.5 6 33.25 6.75Q34 7.5 34 8.5V31.5Q34 32.5 33.25 33.25Q32.5 34 31.5 34ZM8.5 32H31.5Q31.708 32 31.854 31.854Q32 31.708 32 31.5V8.5Q32 8.292 31.854 8.146Q31.708 8 31.5 8H8.5Q8.292 8 8.146 8.146Q8 8.292 8 8.5V31.5Q8 31.708 8.146 31.854Q8.292 32 8.5 32ZM11.083 30.667Q11.458 30.667 11.708 30.417Q11.958 30.167 11.958 29.792V23.042H14.417V27.333Q14.417 27.667 14.667 27.896Q14.917 28.125 15.292 28.125Q15.625 28.125 15.875 27.875Q16.125 27.625 16.125 27.292V23.042H18.75V29.833Q18.75 30.208 19 30.438Q19.25 30.667 19.625 30.667Q20 30.667 20.229 30.417Q20.458 30.167 20.458 29.792V22.708Q20.458 22.167 20.042 21.75Q19.625 21.333 19.083 21.333H11.625Q11.042 21.333 10.625 21.75Q10.208 22.167 10.208 22.708V29.833Q10.208 30.208 10.458 30.438Q10.708 30.667 11.083 30.667ZM23.958 30.667Q24.333 30.667 24.583 30.417Q24.833 30.167 24.833 29.792V28.125H28.375Q28.917 28.125 29.333 27.708Q29.75 27.292 29.75 26.75V22.708Q29.75 22.167 29.333 21.75Q28.917 21.333 28.375 21.333H24.5Q23.917 21.333 23.5 21.729Q23.083 22.125 23.083 22.708V29.833Q23.083 30.208 23.354 30.438Q23.625 30.667 23.958 30.667ZM24.833 23.042H28.042V26.417H24.833ZM8 8.5Q8 8.292 8 8.146Q8 8 8 8Q8 8 8 8.146Q8 8.292 8 8.5V31.5Q8 31.708 8 31.854Q8 32 8 32Q8 32 8 31.854Q8 31.708 8 31.5Z"/></svg>
